src/assets/icons/no-flight.svg

<svg width="18" height="18" viewBox="0 0 18 18" fill="none" xmlns="http://www.w3.org/2000/svg">
<path d="M9 0C4.0125 0 0 4.0125 0 9C0 13.9875 4.0125 18 9 18C13.9875 18 18 13.9875 18 9C18 4.0125 13.9875 0 9 0ZM1.125 9C1.125 4.65 4.65 1.125 9 1.125C10.95 1.125 12.75 1.8375 14.1375 3.0375L10.425 6.7125L9.1875 4.35C9.1125 4.2 9.075 4.0875 8.925 4.0875H8.4C8.0625 4.0875 8.1 4.1625 8.1375 4.35L8.8875 7.6875V8.25L8.3625 8.2875C7.725 8.2875 6.975 8.4 6.375 8.5875L5.5125 7.275C5.3625 7.05 5.4 7.0125 5.25 7.0125C4.9125 7.0125 4.95 7.05 4.9875 7.275L5.25 8.85C5.25 8.8875 5.25 8.925 5.2875 8.9625C5.25 9 5.2125 9 5.2125 9.0375C5.2125 9.075 5.25 9.1125 5.325 9.15C5.25 9.1875 5.2125 9.2625 5.2125 9.375L4.95 10.95C4.9125 11.175 4.875 11.2125 5.2125 11.2125C5.3625 11.2125 5.325 11.175 5.475 10.95L6.4125 9.5625C6.7125 9.6375 7.0125 9.7125 7.35 9.7875L3 14.1C1.8375 12.7125 1.125 10.95 1.125 9ZM9 16.875C7.0125 16.875 5.175 16.125 3.7875 14.8875L8.8125 9.9H8.8875V10.4625L8.0625 13.8C8.025 13.9875 7.9875 14.0625 8.325 14.0625H8.85C9 14.0625 9.0375 13.95 9.1125 13.8L11.1375 10.125L12.15 10.2H12.3C12.8625 10.2 14.4 9.75 14.4 9.1875C14.4 8.625 12.9 8.1375 12.3 8.1H12.15L11.1375 8.1375L10.95 7.7625L14.925 3.825C16.125 5.2125 16.875 7.0125 16.875 9C16.875 13.35 13.35 16.875 9 16.875Z" fill="#D0D9DF"/>
</svg>

<svg xmlns="http://www.w3.org/2000/svg" width="18" height="18" fill="none"><path fill="#D0D9DF" d="M9 0C4.013 0 0 4.013 0 9c0 4.988 4.013 9 9 9 4.988 0 9-4.012 9-9 0-4.987-4.012-9-9-9ZM1.125 9A7.874 7.874 0 0 1 9 1.125c1.95 0 3.75.712 5.137 1.913l-3.712 3.675L9.187 4.35c-.074-.15-.112-.262-.262-.262H8.4c-.338 0-.3.074-.263.262l.75 3.338v.562l-.524.037c-.638 0-1.388.113-1.988.3l-.862-1.312c-.15-.225-.113-.263-.263-.263-.338 0-.3.038-.263.263L5.25 8.85c0 .037 0 .075.037.113-.037.037-.074.037-.074.075 0 .037.037.075.112.112-.075.037-.112.112-.112.225L4.95 10.95c-.038.225-.075.263.263.263.15 0 .112-.038.262-.263l.938-1.387c.3.074.6.15.937.224L3 14.1C1.837 12.713 1.125 10.95 1.125 9ZM9 16.875a7.827 7.827 0 0 1-5.213-1.988L8.813 9.9h.074v.563L8.063 13.8c-.037.188-.074.262.263.262h.525c.15 0 .188-.112.263-.262l2.024-3.675 1.013.075h.15c.563 0 2.1-.45 2.1-1.012 0-.563-1.5-1.05-2.1-1.088h-.15l-1.013.037-.187-.375 3.975-3.937c1.2 1.388 1.95 3.188 1.95 5.175A7.874 7.874 0 0 1 9 16.875Z"/></svg>
